X:132
T:Dawns y Tylwyth Teg - The Fairy Dance
M:2/4
L:1/16
Q:100
C:Trad. arr. Bob Evans
R:Processional
N:Aeolian mode arrangement
K:G
G2GE G2GE | G2GF EFEF | G2G2 AGFE | DEFG E
2E2 | G2GE G2GE | G2GF EFEF | G2G2 AGFE |
DEFG E2E2 :||: B2B2 c3B | AGAF B3A | G2
G2 AGFE | FEFG EFGA | B2B2 c3B | AGAF B3
A | G2G2 AGFE | FEFG E2E2 :||
